X: 1062
T:Drops Of Brandy (A27)
N: page A27
N: pentatonic
M:9/8
S: ubiquitous slip-jig in many collections from 1740s. Associated with the dance "Strip the Willow.
S:song in Bodleian of this title, also many others set to the tune. e.g. "Jim Baggs"
S:James Winder Ms, Lancashire, 1835-41
S:the usual version
R:Slip Jig
A:Wyresdale,Lancashire
M:9/8
L:1/8
Z:vmp.Chris Partington, Aug 2004
K:C
"G"d2c BGB BGB|d2d BGB "C"cBA|"G"d2d BGB BGB|"C"cBc A2B cBA|
"G"d2c BGB BGB|d2d BGB "C"cBA|"G"d2d Bcd gdB|"C"cBc A2B cBA|
"G"GBd gdB gdB|GBd gdB "C"cBA|"G"GBd gdB gdB|"C"cBc A2B cBA|
"G"GBd gdB gdB|GBd gdB "C"cBA|"G"GBd gba gdB|"C"cBc A2B cBA|
